X:98
T:Farewell to Ireland
Z: id:dc-reel-91
M:C
L:1/8
K:A Dorian
A,3^C E3F|GEDB, G,B,DB,|A,3^C E3F|GEDF EA,A,G,|!
A,3^C E3F|GEDB, G,2g2|edeg abaf|gedB eAA2:|!
a3b agef|g3a gedB|eaab agef|gedB eAAg|!
agef gage|d^cdB GABd|cAdB cdef|gedB eAA2:|!
eAcA eAcA|d^cdB GABd|eAcA cdef|gedB eAAg|!
eAcA eAcA|d^cdB GABd|cAdB cdef|gedB eAA2:|!
ae^ce aece|gdBd gdBd|ae^ce a3f|gedB eAA^g|!
agef gage|d^cdB GABd|cAdB cdef|gedB eAA2:|!